X:1
T:Follow My Highland Soldier
M:C|
L:1/8
Q:80
C:
S:March
K:HP
[| e|
{g}A2{GdGe}Ae|
{Gdc}d3/2B/2{g}A{d}B|
{g}G3/2A/2{gBd}B{g}A/4{d}G3/4|  !
{gf}g2{a}e{g}f/4g3/4|
{ag}a2{f}ge|
{gef}e3/2d/2{gBd}B/2{e}A3/2|  !
{g}G3/2{d}G/2{e}G3/2{d}A/2|
{g}B2{gBd}B{g}A/4{d}G3/4{g}A2{GdGe}Ae|
{Gdc}d3/2B/2{g}A{d}B|  !
{g}G3/2A/2{gBd}B{g}A/4{d}G3/4|
{gf}g2{a}e{g}f/4g3/4|
{ag}a2{f}ge|  !
{Gdc}d3/2B/2{gf}gB|
{g}A2{GdGe}A{d}B|
{gBd}B{e}A{GAG}A|] [|  !
{g}e/2f/2|
{gf}g3/2f/2{gf}ga|
{f}g{a}f{gef}ed|  !
{g}e3/2f/2{gf}g{a}e|
{ag}a2{ef}e3/2f/2|
{gf}g3/2f/2{gf}ga|  !
{ef}e3/2f/2{gf}gd|
{g}B3/2c/2{gde}d/2c/2B/2A/2|
{g}G3/2{d}G/2{e}Ge{g}A2{GdGe}Ae|  !
{Gdc}d3/2B/2{g}A{d}B|
{g}G3/2A/2{gBd}B{g}A/4{d}G3/4|
{gf}g2{a}e{g}f/4g3/4|  !
{ag}a2{f}ge|
{Gdc}d3/2B/2{gf}gB|
{g}A2{GdGe}A{d}B|  !
{gBd}B{e}A{GAG}A|]

